svgs/sharp-solid/reel.svg

<svg xmlns="http://www.w3.org/2000/svg" viewBox="0 0 448 512"><!--! Font Awesome Pro 6.6.0 by @fontawesome - https://fontawesome.com License - https://fontawesome.com/license (Commercial License) Copyright 2024 Fonticons, Inc. --><path d="M0 0L32 0 416 0l32 0 0 64-32 0-32 0 0 48L64 112l0-48L32 64 0 64 0 0zM0 448l32 0 32 0 0-48 320 0 0 48 32 0 32 0 0 64-32 0L32 512 0 512l0-64zM64 176l0-32 320 0 0 32L64 176zm0 64l0-32 368 0 16 0 0 32-16 0L64 240zm0 64l0-32 320 0 0 32L64 304zm0 64l0-32 320 0 0 32L64 368z"/></svg>

<svg xmlns="http://www.w3.org/2000/svg" viewBox="0 0 448 512"><!--! Font Awesome Pro 6.4.2 by @fontawesome - https://fontawesome.com License - https://fontawesome.com/license (Commercial License) Copyright 2023 Fonticons, Inc. --><path d="M0 0H32 416h32V64H416 384v48H64V64H32 0V0zM0 448H32 64V400H384v48h32 32v64H416 32 0V448zM64 176V144H384v32H64zm0 64V208H432h16v32H432 64zm0 64V272H384v32H64zm0 64V336H384v32H64z"/></svg>
